!!!COM: Bach, Johann Sebastian
!!!OTA: Das wohltemperirte Clavier
!!!OPR: Das wohltemperierte Klavier
!!!OTL: Fuga 22, Vol. 1
!!!XEN: The Well-Tempered Clavier, Volume 1, Fugue 22.
!!!ONB: B-flat minor, 5-part
!!!SCT: BWV 867b
!!!YEC: Copyright 1994, David Huron
!!!YEM: Rights to all derivative electronic formats reserved.
!!!RWG: The alto and second-soprano parts exchange registers between
!!!RWG: measures 29 and 37.
**kern	**kern	**kern	**kern	**kern
*staff2	*staff2	*staff1	*staff1	*staff1
*clefF4	*clefF4	*clefG2	*clefG2	*clefG2
*k[b-e-a-d-g-]	*k[b-e-a-d-g-]	*k[b-e-a-d-g-]	*k[b-e-a-d-g-]	*k[b-e-a-d-g-]
*M2/2	*M2/2	*M2/2	*M2/2	*M2/2
*b-:	*b-:	*b-:	*b-:	*b-:
*MM126	*MM126	*MM126	*MM126	*MM126
=1	=1	=1	=1	=1
1r	1r	1r	1r	2b-
.	.	.	.	2f
=2	=2	=2	=2	=2
1r	1r	1r	1r	4r
.	.	.	.	4gg-
.	.	.	.	4ff
.	.	.	.	4ee-
=3	=3	=3	=3	=3
1r	1r	1r	2f	4dd-
.	.	.	.	4cc
.	.	.	2B-	4dd-
.	.	.	.	4ee-
=4	=4	=4	=4	=4
1r	1r	1r	4r	4ff
.	.	.	4dd-	8een
.	.	.	.	8ff
.	.	.	4cc	[2ggn
.	.	.	4b-	.
=5	=5	=5	=5	=5
1r	1r	1r	4a-	4gg]
.	.	.	4gn	8aa-
.	.	.	.	8ggn
.	.	.	4a-	[2ff
.	.	.	4b-	.
=6	=6	=6	=6	=6
1r	1r	1r	2.cc	4ff]
.	.	.	.	8ee-
.	.	.	.	8dd-
.	.	.	.	4ee-
.	.	.	8b-	4ff
.	.	.	8an	.
=7	=7	=7	=7	=7
1r	1r	1r	4b-	2.gg-
.	.	.	4cc	.
.	.	.	[2dd-	.
.	.	.	.	8ff
.	.	.	.	8ee-
=8	=8	=8	=8	=8
1r	1r	1r	4dd-]	4ff
.	.	.	8cc	4ggn
.	.	.	8b-	.
.	.	.	4cc	[2aa-
.	.	.	4ddn	.
=9	=9	=9	=9	=9
1r	1r	1r	2.ee-	4aa-]
.	.	.	.	8ggn
.	.	.	.	8ff
.	.	.	.	4gg
.	.	.	8dd-	4aan
.	.	.	8cc	.
=10	=10	=10	=10	=10
1r	1r	2B-	4dd-	2.bb-
.	.	.	4ee-	.
.	.	2F	[2ff	.
.	.	.	.	8aan
.	.	.	.	8ggn
=11	=11	=11	=11	=11
1r	1r	4r	4ff]	4aan
.	.	4g-	8ee-	4bb-
.	.	.	8dd-	.
.	.	4f	[2ee-	[2ccc
.	.	4e-	.	.
=12	=12	=12	=12	=12
1r	2F	4d-	4ee-]	4ccc]
.	.	4c	8ff	8bb-
.	.	.	8ee-	8aan
.	2BB-	4B-	4dd-	4bb-
.	.	8c	4cc	4aa-
.	.	8d-	.	.
=13	=13	=13	=13	=13
1r	4r	4e-	2.b-	4gg-
.	4d-	4f	.	4ff
.	4c	2g-	.	[2ee-
.	4B-	.	8an	.
.	.	.	8b-	.
=14	=14	=14	=14	=14
1r	4An	4f	4cc	4ee-]
.	4F	4e-	4an	8ff
.	.	.	.	8gg-
.	4Gn	4d-	4b-	4ff
.	4A	4c	[4cc	4ee-
=15	=15	=15	=15	=15
2BB-	4B-	4d-	4cc]	1dd-
.	4C	4e-	8b-	.
.	.	.	8an	.
2FF	4D-	4f	[2b-	.
.	4E-	4g-	.	.
=16	=16	=16	=16	=16
4r	4F	2c	2b-]	1cc
4G-	4G-	.	.	.
4F	2A-	[2f	[2a-	.
4E-	.	.	.	.
=17	=17	=17	=17	=17
4Dn	[1B-	4f]	1a-]	[1b-
4BB-	.	4dn	.	.
4C	.	4e-	.	.
4D	.	[4f	.	.
=18	=18	=18	=18	=18
4E-	1B-]	4f]	[1g-	2.b-]
4F	.	8e-	.	.
.	.	8dn	.	.
4E-	.	[2e-	.	.
4D-	.	.	.	4ee-
=19	=19	=19	=19	=19
4C	4c	1e-]	1g-]	[1a-
4AA-	4C	.	.	.
4BB-	4D-	.	.	.
4C	4E-	.	.	.
=20	=20	=20	=20	=20
2D-	4F	2d-	2f	2a-]
.	4E-	.	.	.
2BB-	4F	[2f	2b-	2dd-
.	4G-	.	.	.
=21	=21	=21	=21	=21
2F	4A-	1f]	2a-	2cc
.	8B-	.	.	.
.	8c	.	.	.
2D-	4B-	.	[2dd-	[2ff
.	4A-	.	.	.
=22	=22	=22	=22	=22
4E-	4G-	4b-	4dd-]	2ff]
4F	4A-	4a-	4cc	.
[2G-	4B-	4g-	2b-	4ee-
.	8c	4f	.	4dd-
.	8d-	.	.	.
=23	=23	=23	=23	=23
4G-]	[1A-	2e-	[1a-	2cc
4F	.	.	.	.
4E-	.	2f	.	[2dd-
4D-	.	.	.	.
=24	=24	=24	=24	=24
2A-	1A-_	1e-	4a-]	2dd-]
.	.	.	4b-	.
2AA-	.	.	4a-	2cc
.	.	.	4g-	.
=25	=25	=25	=25	=25
2D-	2A-]	4d-	4f	2dd-
.	.	4c	4e-	.
2r	2r	4d-	4f	2a-
.	.	4e-	4g-	.
=26	=26	=26	=26	=26
1r	1r	2f	2a-	4r
.	.	.	.	4ccc-
.	.	2dn	2f	4bb-
.	.	.	.	4aa-
=27	=27	=27	=27	=27
1r	1r	2.e-	2b-	4gg-
.	.	.	.	4ff
.	.	.	2e-	4gg-
.	.	4f	.	4aa-
=28	=28	=28	=28	=28
1r	1r	4g-	4r	4bb-
.	.	4e-	4gg-	8aan
.	.	.	.	8bb-
.	.	4an	4ff	[2ccc
.	.	8gn	4ee-	.
.	.	8f	.	.
=29	=29	=29	=29	=29
1r	2B-	4b-	2dd-	4ccc]
.	.	4ff	.	2bb-
.	2F	2ee-	2cc	.
.	.	.	.	4aan
=30	=30	=30	=30	=30
1r	4r	2ddn	[1b-	[1bb-
.	4g-	.	.	.
.	4f	2ee-	.	.
.	4e-	.	.	.
=31	=31	=31	=31	=31
1r	4dn	[1ff	1b-_	2bb-]
.	4B-	.	.	.
.	4c	.	.	2aa-
.	4d	.	.	.
=32	=32	=32	=32	=32
2E-	4e-	4ff]	1b-_	1gg-
.	4F	8ee-	.	.
.	.	8ddn	.	.
2BB-	4G-	[2ee-	.	.
.	4A-	.	.	.
=33	=33	=33	=33	=33
4r	4B-	2ee-]	1b-_	2ff
4c-	4c-	.	.	.
4B-	2d-	[2dd-	.	2ff-
4A-	.	.	.	.
=34	=34	=34	=34	=34
4Gn	4e-	4dd-]	1b-]	[1ee-
4E-	4Gn	8ee-	.	.
.	.	8ff-	.	.
4F	4A-	4ee-	.	.
4G	4B-	4dd-	.	.
=35	=35	=35	=35	=35
4A-	4c-	2cc-	4a-	2ee-]
4G-	4B-	.	4b-	.
4F-	4A-	[2ff-	2cc-	[2aa-
4E-	4G-	.	.	.
=36	=36	=36	=36	=36
4D-	2F-	8ff-]	1b-	2aa-]
.	.	8ee-	.	.
4BB-	.	[4dd-	.	.
4E-	[2E-	8dd-]	.	2ggn
.	.	8ff-	.	.
4EE-	.	8ee-	.	.
.	.	8dd-	.	.
=37	=37	=37	=37	=37
2AA-	4E-]	2ccn	2a-	2aa-
.	4A-	.	.	.
4BB-	4G-	2r	2d-	2r
4AA-	4F	.	.	.
=38	=38	=38	=38	=38
2GG-	4E-	1r	4r	1r
.	4D-	.	4ff	.
[2G-	2B-	.	4ee-	.
.	.	.	4dd-	.
=39	=39	=39	=39	=39
4G-]	4A-	1r	4cc	1r
4F	4g-	.	4a-	.
4G-	4f	.	4b-	.
4A-	4e-	.	4cc	.
=40	=40	=40	=40	=40
2B-	4d-	1r	[1dd-	1r
.	2g-	.	.	.
2G-	.	.	.	.
.	4f	.	.	.
=41	=41	=41	=41	=41
4A-	1e-	1r	2dd-]	1r
4B-	.	.	.	.
4A-	.	.	2cc	.
4G-	.	.	.	.
=42	=42	=42	=42	=42
2.F	2A-	1r	4dd-	1r
.	.	.	8cc-	.
.	.	.	8b-	.
.	4a-	.	[2cc-	.
8E-	8g-	.	.	.
8D-	8f	.	.	.
=43	=43	=43	=43	=43
4E-	4g-	1r	4cc-]	1r
4F	2d-	.	8b-	.
.	.	.	8a-	.
[2G-	.	.	4b-	.
.	4e-	.	4ccn	.
=44	=44	=44	=44	=44
4G-]	4A-	1r	2.dd-	1r
8F	8a-	.	.	.
8E-	8g-	.	.	.
4F	4a-	.	.	.
4Gn	[4e-	.	8cc	.
.	.	.	8b-	.
=45	=45	=45	=45	=45
2.A-	4e-]	1r	4cc	1r
.	4f	.	4ddn	.
.	[2B-	.	[2ee-	.
8Gn	.	.	.	.
8F	.	.	.	.
=46	=46	=46	=46	=46
4Gn	4B-]	4r	4ee-]	1r
4An	4r	2f	8dd-	.
.	.	.	8cc	.
8B-	2r	.	8dd-	.
8c	.	.	8ee-	.
8B-	.	4B-	8dd-	.
8c	.	.	8ee-	.
=47	=47	=47	=47	=47
8d-	1r	4r	2ff	1r
8c	.	.	.	.
8B-	.	4dd-	.	.
8A-	.	.	.	.
8G-	.	4cc	[2ee-	.
8F	.	.	.	.
8G-	.	4b-	.	.
8E-	.	.	.	.
=48	=48	=48	=48	=48
2F	1r	8an	4ee-]	1r
.	.	8b-	.	.
.	.	8cc	4ee-	.
.	.	8a	.	.
2BB-	.	4f	4dd-	.
.	.	4a-	4cc	.
=49	=49	=49	=49	=49
4r	1r	4g-	8b-	1r
.	.	.	8cc	.
4d-	.	4f	8dd-	.
.	.	.	8b-	.
4c	.	[2e-	2g-T	.
4B-	.	.	.	.
=50	=50	=50	=50	=50
4An	1r	4e-]	2f	2ff
2A-	.	8dn	.	.
.	.	8c	.	.
.	.	2d	2b-	2b-
8G-	.	.	.	.
8F	.	.	.	.
=51	=51	=51	=51	=51
4G-	1r	2e-	2e-	4r
4A-	.	.	.	4ccc-
2B-	.	2dn	4r	4bb-
.	.	.	4ff	4aa-
=52	=52	=52	=52	=52
2E-	1r	4e-	4ee-	2gg-
.	.	4b-	4dd-	.
[2AA-	.	4a-	2cc-	4ff-
.	.	4g-	.	4ee-
=53	=53	=53	=53	=53
4AA-]	2F	2f	[1b-	2ddn
4GG-	.	.	.	.
4FF	2BB-	2g-	.	[2ee-
4EE-	.	.	.	.
=54	=54	=54	=54	=54
1BB-	4r	1f	1b-]	2ee-]
.	4c-	.	.	.
.	4B-	.	.	2ddn
.	4A-	.	.	.
=55	=55	=55	=55	=55
2.E-	4G-	2e-	2b-	2ee-
.	4F	.	.	.
.	4G-	2B-	2e-	2r
4F	4A-	.	.	.
=56	=56	=56	=56	=56
[1G-	4B-	4r	4r	1r
.	8c	4dd-	4ff	.
.	8d-	.	.	.
.	[2e-	4cc	4ee-	.
.	.	4b-	4dd-	.
=57	=57	=57	=57	=57
4G-]	4e-]	4an	4cc	1r
4F	4d-	4gn	4b-	.
4E-	4c	4a	4cc	.
4D-	4B-	4b-	4dd-	.
=58	=58	=58	=58	=58
2C	2An	4cc	4ee-	1r
.	.	4ee-	4gg-	.
2F	[2A-	4dd-	4ff	.
.	.	4cc-	4ee-	.
=59	=59	=59	=59	=59
2BB-	2A-]	4b-	4ddn	1r
.	.	4dd-	4ff	.
[2E-	[2G-	4ccn	4ee-	.
.	.	4b-	4dd-	.
=60	=60	=60	=60	=60
4E-]	4G-]	2an	2cc	1r
4D-	4F	.	.	.
4C	4E-	2b-	[2dd-	.
4BB-	4D-	.	.	.
=61	=61	=61	=61	=61
2G-	2.B-	2e-	4dd-]	1r
.	.	.	2cc	.
2Gn	.	2en	.	.
.	4c	.	4b-	.
=62	=62	=62	=62	=62
[1F	4d-	4f	4an	1r
.	4c	4an	4gg-	.
.	4d-	4b-	4ff	.
.	4e-	[4cc	4ee-	.
=63	=63	=63	=63	=63
2F]	[1f	4cc]	2dd-	1r
.	.	2b-	.	.
2FF	.	.	2cc	.
.	.	4an	.	.
=64	=64	=64	=64	=64
[1GG-	2f]	4b-	1b-	1r
.	.	4a-	.	.
.	4e-	4g-	.	.
.	4d-	4f	.	.
=65	=65	=65	=65	=65
4GG-]	1c-	4e-	1a-	1r
4FF	.	8dn	.	.
.	.	8e-	.	.
4EE-	.	[2f	.	.
4DDn	.	.	.	.
=66	=66	=66	=66	=66
2EE-	4B-	4f]	1g-	1r
.	4d-	4f	.	.
[2E-	4cn	4e-	.	.
.	4B-	4d-	.	.
=67	=67	=67	=67	=67
4E-]	2An	4c	1f	2r
8D-	.	2e-	.	.
8C	.	.	.	.
4D-	2B-	.	.	2b-
4E-	.	4d-	.	.
=68	=68	=68	=68	=68
4F	2An	2c	2f	2f
4E-	.	.	.	.
4D-	2r	2B-	2B-	4r
4C	.	.	.	4gg-
=69	=69	=69	=69	=69
4D-	2F	2F	4r	4ff
4AAn	.	.	4cc	4ee-
2BB-	2BB-	4r	4b-	4dd-
.	.	4g-	4an	4cc
=70	=70	=70	=70	=70
2FF	4r	4f	4b-	4dd-
.	4c	4e-	4an	4ee-
4r	4B-	4d-	4b-	4ff
4G-	4An	4c	4cc	4ee-
=71	=71	=71	=71	=71
4F	4B-	8d-	4b-	4dd-
.	.	8e-	.	.
4E-	4c	2f	4an	4cc
4D-	4d-	.	2b-	[2b-
4C	4e-	4g-	.	.
=72	=72	=72	=72	=72
4Dn	1B-	4f	4a-	4b-]
4E-	.	4e-	4g-	4cc
8F	.	2d-	2f	[2dd-
8G-	.	.	.	.
8En	.	.	.	.
8F	.	.	.	.
=73	=73	=73	=73	=73
1EEn	1r	2gn	1gn	4dd-]
.	.	.	.	4dd-
.	.	[2c	.	4cc
.	.	.	.	4b-
=74	=74	=74	=74	=74
1FF	2c	1c]	4f	2b-
.	.	.	4g-	.
.	[2F	.	4f	2an
.	.	.	4e-	.
=75	=75	=75	=75	=75
1BB-;	1F;]	1B-;	1dn;	1b-;
==	==	==	==	==
*-	*-	*-	*-	*-
!!!CDT: 1685/3/-1750/7/28
!!!OCY: Deutschland
!!!PPP: Coethen; Cothen; Co2then
!!!ODT: <1722//
!!!PDT: 1722
!!!AFR: fuga; fugue
!!!AST: polyphony
!!!AMT: simple duple
!!!SCA: Bach-Werke-Verzeichnis
!!!YOR: Bach Gesellschaft
!!!SMS: British Library, various
!!!AIN: cemba; clavi
!!!EEV: 1.0
!!!RDT: 1986 November 24
!!!YER: 1994 August 10
!!!EFL: 22/48
!!!VTS: 3320148077
